X:5
T: ES HATT EIN BAUR EIN TOECHTERLEIN
N: E0001D
O: Europa, Mitteleuropa, Deutschland, Schlesien, Breslau
R: Sage, Maerchen -, Zauber - Lied
M: 2/4
L: 1/16
K: F
C2 | F2E2F2G2 | A3GF2z2 |
A2G2A2B2 | c3BA2
F2 | f4d2f2 | c4z2
c2 | d2B2G2d2 | c3AF2
G2 | A2c2B2G2 | F4z2

@@@ Tune index: 3655
